X: 1
T: Dedicated To You
M: 4/4
L: 1/8
R: reel
K: Gmaj
|:Bd|ecAF DGG2|BdcA GFDF|ABcA AG(3efg|fdcA d^cde|
fdcA DGG2|BdcA GFDF|ABcA AG(3efg|fdcA G2:|
|:Bc|defd g3b|agab gdBd|^ceag fd(3efg|fdcA BABc|
defd g3b|agab gdBd|^ceag fd(3efg|fdcA G2:|
